X:1987
T:Boys of Bluehill
M:4/4
L:1/8
R:Hornpipe
Z:Often followed by Harvest Home as a medley
K:D
FA|BAFA D2FA|BA (3Bcd e2de|faaf egfe|dfed B2dA|BAFA D2FA|BA (3Bcd e2de|
faaf egfe|d2 dc  d2:|
|:fg|afdf a2gf|gfga b2ag|faaf egfe|dfed B2dB|BAFA D2FA|BA (3Bcd e2de|
faaf 
egfe|d2dc d2:|
